src/images/dosen/dosen-male-2.svg

<svg width="120" height="120" viewBox="0 0 120 120" fill="none" xmlns="http://www.w3.org/2000/svg">
<mask id="mask0" mask-type="alpha" maskUnits="userSpaceOnUse" x="0" y="0" width="120" height="120">
<path d="M120 60.0002C120 93.1373 93.1369 120 59.9999 120C26.863 120 0 93.1373 0 60.0002C0 26.8632 26.863 0 59.9999 0C93.1369 0 120 26.8632 120 60.0002Z" fill="#76B2A4"/>
</mask>
<g mask="url(#mask0)">
<circle cx="60" cy="60" r="60" fill="#775ADA"/>
<path d="M60.0676 68.2194H49.3428V82.0915C49.3428 84.1518 52.7439 90.686 60.0676 90.686V68.2194Z" fill="#EDBD9F"/>
<path d="M60.0677 40.7406C47.9843 40.7406 46.194 49.0732 46.194 59.7509C46.194 71.5659 53.2622 79.408 60.0677 79.408V40.7406Z" fill="#F5D0B5"/>
<path d="M46.3566 58.3289C45.5063 55.1515 44.343 55.1515 43.8504 55.9571C43.3583 56.7627 43.7293 58.689 44.5651 61.7654C45.2343 64.2273 45.9055 65.3818 46.8471 64.451C47.7888 63.5203 46.3566 58.3289 46.3566 58.3289Z" fill="#F5D0B5"/>
<path d="M44.679 84.5547L44.5739 84.5712C43.3728 84.7498 25.6054 86.4685 23.8011 93.6844C22.6932 98.1153 20.4444 120 20.4444 120H55.6762H57.5929H60.0677V91.1251L44.679 84.5547Z" fill="#F2F1F0"/>
<path d="M60.0677 99.0887H56.7961L56.0935 120H60.0677V99.0887Z" fill="#991E3A"/>
<path d="M60.0677 91.1252H57.1889L54.7052 95.4973L56.7961 99.0887H60.0677V91.1252Z" fill="#C62444"/>
<path d="M56.7949 99.1145L44.6789 84.5547L55.2154 96.3741L56.7961 99.0887L56.7949 99.1145Z" fill="#BEBCBA"/>
<path d="M57.3865 99.8251L56.795 99.1144L56.7962 99.0887H57.6134L57.3865 99.8251Z" fill="#791A2F"/>
<path d="M57.6135 99.0887H56.7962L55.2155 96.3741L57.3865 98.8091L60.0677 91.1252L57.6135 99.0887Z" fill="#9B1F37"/>
<path d="M53.3072 84.5547L49.3428 81.0639C47.4313 82.1383 44.6789 84.5547 44.6789 84.5547L57.3864 98.8091L60.0676 91.1252V90.5079L53.3072 84.5547Z" fill="white"/>
<path d="M60.0676 68.2194H70.7929V82.0915C70.7929 84.1518 67.3914 90.686 60.0676 90.686V68.2194Z" fill="#DCAD95"/>
<path d="M60.0676 40.7406C72.1514 40.7406 73.9413 49.0732 73.9413 59.7509C73.9413 71.5659 66.8731 79.408 60.0676 79.408V40.7406Z" fill="#DFBBA5"/>
<path d="M73.7787 58.3289C74.629 55.1515 75.7928 55.1515 76.2849 55.9571C76.7771 56.7627 76.406 58.689 75.5703 61.7654C74.9011 64.2273 74.2302 65.3818 73.2882 64.451C72.3466 63.5203 73.7787 58.3289 73.7787 58.3289Z" fill="#DFBBA5"/>
<path d="M75.4568 84.5547L75.5614 84.5712H75.5618C76.763 84.7498 94.5299 86.4685 96.3343 93.6844C97.4421 98.1153 99.6911 120 99.6911 120H64.4591H62.5424H60.0676V91.1251L75.4568 84.5547Z" fill="#E2DCD4"/>
<path d="M60.0676 99.0887H63.3392L64.0422 120H60.0676V99.0887Z" fill="#86152F"/>
<path d="M60.0676 91.1252H62.9464L65.4305 95.4973L63.3392 99.0887H60.0676V91.1252Z" fill="#AF2144"/>
<path d="M60.0676 91.1251L60.2692 90.8998L60.5111 90.6781C60.7541 90.6692 60.9932 90.6531 61.2274 90.6298L60.0676 91.1251ZM67.2328 88.0661C69.6404 86.0061 70.7929 83.2911 70.7929 82.0916V81.0638C72.7043 82.1829 75.4568 84.5547 75.4568 84.5547L67.2328 88.0661Z" fill="#5C8C84"/>
<path d="M60.5111 90.6781L67.0296 84.7L70.7929 81.0639V82.0916C70.7929 83.2912 69.6404 86.0062 67.2329 88.0661L61.2274 90.6298C60.9932 90.6532 60.7542 90.6692 60.5111 90.6781Z" fill="#AD8A77"/>
<path d="M63.3404 99.1149L63.3392 99.0887L65.4305 95.4973L62.9464 91.1251H60.0676L61.2274 90.6298L67.2328 88.0661L75.4568 84.5547L63.3404 99.1149Z" fill="#B0ACA4"/>
<path d="M62.7488 99.8251L62.5219 99.0887H63.3391L63.3403 99.1148L62.7488 99.8251Z" fill="#6A1226"/>
<path d="M63.3392 99.0887H62.5219L60.0676 91.1252H62.9464L65.4305 95.4973L63.3392 99.0887Z" fill="#891C36"/>
<path d="M66.8284 84.5547L70.7929 81.0639C72.7043 82.1383 75.4568 84.5547 75.4568 84.5547L62.7488 98.8091L60.0676 91.1252V90.5079L66.8284 84.5547Z" fill="white"/>
<path d="M51.8469 51.5708C51.8469 51.5708 55.943 50.9664 60.0676 49.4107V48.1065C56.4106 50.3652 51.8469 51.5708 51.8469 51.5708Z" fill="#534D42"/>
<path d="M49.4016 49.4051C49.5102 49.247 49.6229 49.0916 49.742 48.9395C51.2909 46.9581 53.8622 45.402 56.4501 44.6004C54.4453 47.045 51.1086 48.682 49.4016 49.4051ZM45.617 42.5755C43.4713 51.5004 45.885 59.6543 46.1727 60.4632C47.3944 60.7074 46.3224 54.215 49.2261 49.6735C51.2442 49.2989 56.2448 48.2096 60.0677 46.0491V32.9979C52.2804 32.9979 47.1022 36.3966 45.617 42.5755Z" fill="#534D42"/>
<path d="M52.8526 50.3186C52.8526 50.3186 56.6243 49.5943 60.0677 47.6885V46.0668C57.1752 48.8309 52.8526 50.3186 52.8526 50.3186Z" fill="#534D42"/>
<path d="M60.0676 46.0492V46.0669L60.1123 46.025L60.0676 46.0492Z" fill="#534D42"/>
<path d="M67.0023 45.1063C68.6682 45.7879 69.9961 46.8088 70.9897 48.2498C75.4568 54.7285 72.6737 60.7207 73.9626 60.4632C74.2507 59.6543 78.5239 52.0606 75.4568 42.1884C74.5691 39.3318 71.6279 38.9221 71.6279 38.9221C72.0995 35.5644 69.7587 32.4068 69.7587 32.4068C69.7587 32.4068 70.1273 33.8852 70.0963 35.4707C69.3209 33.7975 67.8924 31.9549 65.28 31.3271C65.28 31.3271 66.6337 32.5818 67.6867 34.2743L67.6308 34.2462C65.8759 32.468 64.0784 31.0173 60.6479 31.1159C60.6479 31.1159 61.1746 31.9018 63.0611 33.1404C62.105 33.043 61.1034 32.9979 60.0676 32.9979V46.0491L60.1123 46.0249L60.0676 46.0668V47.6885C61.3593 46.9738 62.6052 46.0937 63.5875 45.0221C62.7613 46.202 61.4821 47.2329 60.0676 48.1066V49.4108C62.7336 48.4052 65.4107 47.0032 67.0023 45.1063Z" fill="#423C34"/>
</g>
</svg>

<?xml version="1.0" encoding="UTF-8" standalone="no"?>
<svg width="120" xmlns="http://www.w3.org/2000/svg" fill="none" viewBox="0 0 120 120" height="120">
 <mask id="mask0" mask-type="alpha" height="120" width="120" y="0" x="0" maskUnits="userSpaceOnUse">
  <path d="m120 60c0 33.137-26.863 60-60 60s-60-26.863-60-60 26.863-60 60-60 60 26.863 60 60z" fill="#76B2A4"/>
 </mask>
 <g mask="url(#mask0)">
  <circle cy="60" cx="60" r="60" fill="#775ADA"/>
  <path d="m60.068 68.219h-10.725v13.873c0 2.06 3.401 8.594 10.725 8.594v-22.467z" fill="#EDBD9F"/>
  <path d="m60.068 40.741c-12.084 0-13.874 8.332-13.874 19.01 0 11.815 7.068 19.657 13.874 19.657v-38.667z" fill="#F5D0B5"/>
  <path d="m46.357 58.329c-0.851-3.177-2.014-3.177-2.507-2.372-0.492 0.806-0.121 2.732 0.715 5.808 0.669 2.462 1.341 3.617 2.282 2.686 0.942-0.931-0.49-6.122-0.49-6.122z" fill="#F5D0B5"/>
  <path d="m44.679 84.555l-0.105 0.016c-1.201 0.179-18.969 1.897-20.773 9.113-1.108 4.431-3.357 26.316-3.357 26.316h39.624v-28.875l-15.389-6.57z" fill="#F2F1F0"/>
  <path d="m60.068 99.089h-3.272l-0.702 20.911h3.974v-20.911z" fill="#991E3A"/>
  <path d="m60.068 91.125h-2.879l-2.484 4.372 2.091 3.592h3.272v-7.964z" fill="#C62444"/>
  <path d="m56.795 99.114l-12.116-14.559 10.536 11.819 1.581 2.715-0.001 0.025z" fill="#BEBCBA"/>
  <path d="m57.386 99.825l-0.591-0.711 0.001-0.025h0.817l-0.227 0.736z" fill="#791A2F"/>
  <path d="m57.614 99.089h-0.818l-1.58-2.715 2.17 2.435 2.682-7.684-2.454 7.964z" fill="#9B1F37"/>
  <path d="m53.307 84.555l-3.964-3.491c-1.912 1.074-4.664 3.491-4.664 3.491l12.707 14.254 2.682-7.684v-0.617l-6.761-5.953z" fill="#fff"/>
  <path d="m60.068 68.219h10.725v13.873c0 2.06-3.402 8.594-10.725 8.594v-22.467z" fill="#DCAD95"/>
  <path d="m60.068 40.741c12.083 0 13.873 8.332 13.873 19.01 0 11.815-7.068 19.657-13.873 19.657v-38.667z" fill="#DFBBA5"/>
  <path d="m73.779 58.329c0.85-3.177 2.014-3.177 2.506-2.372 0.492 0.806 0.121 2.732-0.715 5.808-0.669 2.462-1.34 3.617-2.282 2.686-0.941-0.931 0.491-6.122 0.491-6.122z" fill="#DFBBA5"/>
  <path d="m75.457 84.555l0.104 0.016h0.001c1.201 0.179 18.968 1.897 20.772 9.113 1.108 4.431 3.357 26.316 3.357 26.316h-39.623v-28.875l15.389-6.57z" fill="#E2DCD4"/>
  <path d="m60.068 99.089h3.271l0.703 20.911h-3.974v-20.911z" fill="#86152F"/>
  <path d="m60.068 91.125h2.878l2.484 4.372-2.091 3.592h-3.271v-7.964z" fill="#AF2144"/>
  <path d="m60.068 91.125l0.201-0.225 0.242-0.222c0.243-0.009 0.482-0.025 0.716-0.048l-1.159 0.495zm7.165-3.059c2.407-2.06 3.56-4.775 3.56-5.974v-1.028c1.911 1.119 4.664 3.491 4.664 3.491l-8.224 3.511z" fill="#5C8C84"/>
  <path d="m60.511 90.678l6.519-5.978 3.763-3.636v1.028c0 1.199-1.153 3.914-3.56 5.974l-6.006 2.564c-0.234 0.023-0.473 0.039-0.716 0.048z" fill="#AD8A77"/>
  <path d="m63.34 99.115l-0.001-0.026 2.091-3.592-2.484-4.372h-2.878l1.159-0.495 6.006-2.564 8.224-3.511-12.117 14.56z" fill="#B0ACA4"/>
  <path d="m62.749 99.825l-0.227-0.736h0.817l0.001 0.026-0.591 0.71z" fill="#6A1226"/>
  <path d="m63.339 99.089h-0.817l-2.454-7.964h2.878l2.484 4.372-2.091 3.592z" fill="#891C36"/>
  <path d="m66.828 84.555l3.965-3.491c1.911 1.074 4.664 3.491 4.664 3.491l-12.708 14.254-2.681-7.684v-0.617l6.76-5.953z" fill="#fff"/>
  <path d="m51.847 51.571s4.096-0.605 8.221-2.16v-1.305c-3.657 2.259-8.221 3.465-8.221 3.465z" fill="#534D42"/>
  <path d="m49.402 49.405c0.108-0.158 0.221-0.313 0.34-0.465 1.549-1.982 4.12-3.538 6.708-4.34-2.005 2.445-5.341 4.082-7.048 4.805zm-3.785-6.829c-2.146 8.924 0.268 17.078 0.556 17.887 1.221 0.244 0.149-6.248 3.053-10.789 2.018-0.375 7.019-1.464 10.842-3.625v-13.051c-7.788 0-12.966 3.399-14.451 9.578z" fill="#534D42"/>
  <path d="m52.853 50.319s3.771-0.725 7.215-2.631v-1.621c-2.893 2.764-7.215 4.252-7.215 4.252z" fill="#534D42"/>
  <path d="m60.068 46.049v0.018l0.044-0.042-0.044 0.024z" fill="#534D42"/>
  <path d="m67.002 45.106c1.666 0.682 2.994 1.703 3.988 3.144 4.467 6.478 1.684 12.471 2.973 12.213 0.288-0.809 4.561-8.402 1.494-18.275-0.888-2.856-3.829-3.266-3.829-3.266 0.472-3.358-1.869-6.515-1.869-6.515s0.368 1.478 0.337 3.064c-0.775-1.673-2.204-3.516-4.816-4.144 0 0 1.354 1.255 2.407 2.947l-0.056-0.028c-1.755-1.778-3.553-3.229-6.983-3.13 0 0 0.527 0.786 2.413 2.024-0.956-0.097-1.958-0.142-2.993-0.142v13.051l0.044-0.024-0.044 0.042v1.621c1.291-0.714 2.537-1.594 3.52-2.666-0.827 1.18-2.106 2.211-3.52 3.085v1.304c2.666-1.006 5.343-2.408 6.934-4.305z" fill="#423C34"/>
 </g>
</svg>
